X:1
T:A Wonderful Friend
T:Gordon E. Hooker, 1922
T:A Wonderful Friend
T:Public Domain
T:Public Domain
T:Public Domain
C:Gordon E. Hooker, 1922
Z:Public Domain
%%score ( 1 2 ) ( 3 4 )
L:1/8
M:3/4
K:G
V:1 treble 
V:2 treble 
V:3 bass 
V:4 bass 
V:1
 B2 A3 G | B4 AG | [B,B]2 [DG]2 [CE]2 | [B,D]4 Bc | d4 B2 | B4 G2 | [CG]2 [CF]2 E_E x2 | %7
w: 1.~I have a|oh, a won-|ful friend, He|is all in|to me;|tient and|and * * *|
w: 2.~I have a|oh, a won-|ful friend, And|He walks with|each day;|ing my|lest * * *|
w: 3.~I have a|oh, a won-|ful friend, With-|out Him what|I do?|time of|row, * * *|
 [CDA]4 z2 | B2 A3 G | B4 AG | d2 G2 [B,D]2 | [CE]4 [EGc]2 | B d3 [EFce]2 | %13
w: ten-|der and kind,|So lov- ing|and good is|When I|was lost in|
w: chance|I should fall—|Be tempt- ed|to go a-|Oh, it|is sweet to|
w: tears|dim the eye,|He then is|so faithful and|Or when|tempt- a- tion|
 ([DGB]2 [^CG]2) [=CDFA]2 | [B,D]4 [A,C]2 | [G,B,G]2 z4 | [EGB]2 [GB]2 [FAB]2 | ([EG]2 z2) e2 x2 | %18
w: ness * and|sin, *||With- out a|hope in|
w: know * my|Lord— *||Un- der His|care I|
w: like * a|flood— *||Al- most o’er-|whelmed by|
 ^d2 B2 (z A) | [EG]6 | c2 c2 [CEFc]2 | [DF]2 (z A) E2 x | [^DF-]6 | [DF]4 (EF) | G3 F [CE]2 | %25
w: * To *||ry’s mount- ain|Je- * sus|To|bring me *|home to the|
w: * There, *||can harm me,|kept * by|Each|step of *|way He’s my|
w: * I *||to Je- sus,|stand- * ard|And|with Him *|walk in the|
 D2 [Dc]2 [DB]2 | [EGe]2 [DGd]2 [CFc]2 | ([B,=F]2 [DE^G]2) G2 | A2 c2 [Ge]2 | (Gc B2) EF | %30
w: |||||
w: |||||
w: |||||
 D2 B,2 C2 | [B,G]4 z2 |] %32
w: ||
w: ||
w: ||
V:2
 B,6 | B,6 | x6 | x4 [DF]2 | [D^G]6 | [^CE]6 | A6- C2 | x6 | x6 | x6 | D4 x2 | x6 | [DF]4 x2 | x6 | %14
w: friend,|der-||all|Pa-|sweet,|* so||||He.||dark-||
w: friend,|der-||me|Guard-|steps|* per-||||stray.||thus||
w: friend,|der-||would|In|sor-|* when||||true;||comes||
 G6- | x6 | x6 | e4 [GB]4 | F4 ^D2 | x6 | [CEF]4 x2 | B3 (E2 E2) | x6 | x4 C2 | B,4 x2 | D2 x4 | %26
w: |||the world,|Cal- va-||went|for me, *||safe|fold.||
w: |||a- bide;|no- thing||I’m|His pow’r— *||the|guide.||
w: |||the fight:|look up||His|is raised, *||I|light.||
 x6 | B4 x2 | x6 | d4 D2 | G6- | x6 |] %32
w: ||||||
w: ||||||
w: ||||||
V:3
 [G,,D,]6 | D,2 ^D,2 E,2 | G,,2 B,,2 [C,G,]2 | G,2 G,,2 F,,2 | z2 [E,^G,B,]4 | z2 [E,G,A,]4 | %6
 z2 [D,A,]2 [D,G,]2 x2 | D,2 D,,2 z2 | G,,2 [D,G,B,]4 | G,,2 [D,G,B,]4 | B,,4 [G,,G,]2 | %11
 G,F, G,^G, [A,,A,]2 | D,2 B,,2 A,,2 | (D,2 E,_E,) D,2 | (z ^C, D,2 D,,2 | G,,2 G,,,2) z2 | E,,6 | %17
 [E,,B,,]2 E,4 x2 | B,,2 [^D,B,]2 [F,B,]2 | B,2 B,2 _B,2 | [A,,A,]4 A,,2 | B,,2 A,2 ^A,2 x | %22
 [B,,B,]6 | [A,,C]4 D,2 | E,2 D,2 C,2 | [B,,F,]2 [A,,F,]2 [G,,G,]2 | C,2 B,,2 A,,2 | %27
 ^G,,2 [E,,E,]2 z2 | [A,,E,C]4 [^C,^A,]2 | (B,E D2) [D,C]2 | B,2 G,2 E,2 | [G,,D,]4 z2 |] %32
V:4
 x6 | G,,6 | G,4 x2 | G,6 | E,,6 | A,,,6 | D,,6 x2 | F,4 x2 | x6 | x6 | x6 | C,4 x2 | x6 | x6 | %14
 G,,2 x4 | x6 | x6 | x8 | x6 | E,6 | x6 | x2 C,4 x | x6 | x6 | x6 | x6 | x6 | x6 | x6 | D,4 x2 | %30
 G,,6- | x6 |] %32

